src/main/resources/icons/JavaScriptLanguageIcons/icons/fileTypes/eslint.svg

<svg xmlns="http://www.w3.org/2000/svg" width="16" height="16" viewBox="0 0 16 16">
  <g fill="none" fill-rule="evenodd">
    <path fill="#4339D6" fill-opacity=".9" fill-rule="nonzero" d="M15,5.96 C14.9239267,6.30891333 14.8478333,6.65782333 14.77172,7.00673 C14.36132,8.87867667 13.9517533,10.7507933 13.54302,12.62308 C13.5269637,12.7443095 13.4380733,12.8432178 13.31924,12.87208 C11.3550533,13.4894133 9.39135333,14.1082033 7.42814,14.72845 C7.16883,14.81023 6.90758,14.8868 6.65114,14.97645 C6.53786017,15.0252646 6.4061861,14.9987561 6.32062,14.90991 C5.02258667,13.7674433 3.72251,12.6271767 2.42039,11.48911 C1.98539,11.10802 1.55439,10.72251 1.11233,10.34943 C1.01430454,10.2785258 0.973658878,10.1521914 1.01195,10.03743 C1.21095667,9.13889667 1.40798,8.23994667 1.60302,7.34058 C1.89218,6.01835 2.18389,4.69664 2.46692,3.37317 C2.48714567,3.24719378 2.58390939,3.14726652 2.70917,3.123 C4.39823,2.59283333 6.08665,2.06074333 7.77443,1.52673 C8.29829,1.36138 8.82362,1.2 9.344,1.02489 C9.467422,0.972407986 9.6104459,1.00185315 9.7031,1.09882 C11.3126,2.51254667 12.9239967,3.92423333 14.53729,5.33388 C14.64087,5.42454667 14.7440867,5.51561 14.84694,5.60707 C14.9475455,5.69635943 15.003566,5.82553307 15,5.96 Z M7.9812,12.98279 C8.90702,12.98279 9.83284,12.98062 10.75864,12.98504 C10.8870088,12.9965823 11.0096301,12.9294228 11.06903,12.81504 C11.9691633,11.2981933 12.8721633,9.78295667 13.77803,8.26933 C13.9067015,8.11109592 13.9005541,7.8826161 13.76356,7.73153 C13.7092323,7.65635927 13.6612598,7.57679425 13.62014,7.49366 C12.7792067,6.07576 11.9393867,4.65724333 11.10068,3.23811 C11.0264055,3.08796288 10.8675281,2.99886046 10.70068,3.01378 C8.91594,3.019 7.1312,3.02158 5.34655,3.01124 C5.14230255,2.99242198 4.94803275,3.10312749 4.86011,3.28844 C3.96987,4.80452667 3.07279,6.31681 2.16887,7.82529 C2.09243275,7.94029754 2.09711048,8.09107196 2.18053,8.20112 C3.08892333,9.72578667 3.99451333,11.25203 4.8973,12.77985 C4.96681115,12.9194945 5.11548562,13.0015504 5.27069,12.98593 C6.17415,12.97939 7.07769,12.98291 7.9812,12.98279 Z"/>
    <path fill="#7D7CE8" fill-rule="nonzero" d="M13.76352,7.73149 C13.7091911,7.65632357 13.6612185,7.57676177 13.6201,7.49363 C12.7791667,6.07573667 11.9393467,4.65722 11.10064,3.23808 C11.0263684,3.08792898 10.8674904,2.99882222 10.70064,3.01374 C8.91594,3.01897 7.13121,3.02158 5.34656,3.01124 C5.14231731,2.99241857 4.94804889,3.1031153 4.86012,3.28842 C3.96987333,4.80452667 3.07279,6.31681667 2.16887,7.82529 C2.09243289,7.94029631 2.09710654,8.09106875 2.18052,8.20112 C3.08891333,9.72578667 3.99450333,11.25203 4.89729,12.77985 C4.96680032,12.9195003 5.11548155,13.0015577 5.27069,12.98593 C6.17415,12.97938 7.07769,12.98293 7.98119,12.98278 C8.90701,12.98278 9.83283,12.9806 10.75863,12.98504 C10.8869971,12.9965739 11.009614,12.9294169 11.06902,12.81504 C11.9691533,11.2981933 12.8721533,9.78295333 13.77802,8.26932 C13.9066919,8.11107041 13.9005316,7.88257671 13.76352,7.73149 Z M11.70584,8.17271 C11.12458,9.14337667 10.54543,10.11521 9.96839,11.08821 C9.93028378,11.1615622 9.85163662,11.2046229 9.76931,11.19721 C9.17553,11.19438 8.58174,11.19576 7.98794,11.19576 C7.40846,11.19584 6.82894,11.19358 6.24951,11.19776 C6.14997095,11.2078043 6.05460375,11.1552012 6.01,11.06565 C5.43240667,10.08497 4.85159333,9.10608667 4.26756,8.129 C4.214054,8.05841459 4.2110532,7.96170697 4.26008,7.88794 C4.83861333,6.9198 5.41397667,5.94986333 5.98617,4.97813 C6.04256439,4.85927316 6.16716782,4.78826918 6.29817,4.80034 C7.44279,4.80697 8.58747,4.80534 9.73217,4.80195 C9.83918184,4.79238296 9.94108084,4.84953061 9.98872,4.94583 C10.52424,5.85733 11.0628533,6.76712667 11.60456,7.67522 C11.630939,7.72853879 11.661712,7.77956842 11.69656,7.82778 C11.7844311,7.92467974 11.7883738,8.07122568 11.70584,8.17271 Z" opacity=".8"/>
  </g>
</svg>

<svg xmlns="http://www.w3.org/2000/svg" width="16" height="16" viewBox="0 0 16 16"><rect id="frame" width="16" height="16" fill="none"/><g fill="none" fill-rule="nonzero"><path fill="#4339D6" fill-opacity=".9" d="M15 5.96a9446.43 9446.43 0 0 1-1.457 6.663.296.296 0 0 1-.224.25 4140.68 4140.68 0 0 0-5.89 1.855c-.26.082-.521.159-.778.248a.296.296 0 0 1-.33-.066 1494.549 1494.549 0 0 0-3.9-3.42c-.436-.382-.867-.767-1.309-1.14a.277.277 0 0 1-.1-.313c.199-.898.396-1.797.591-2.696.29-1.323.58-2.644.864-3.968a.304.304 0 0 1 .242-.25c1.69-.53 3.378-1.062 5.065-1.596.524-.166 1.05-.327 1.57-.502a.322.322 0 0 1 .36.074 2472.54 2472.54 0 0 0 5.143 4.508c.1.09.157.219.153.353zm-7.019 7.023c.926 0 1.852-.002 2.778.002a.318.318 0 0 0 .31-.17c.9-1.517 1.803-3.032 2.709-4.546a.413.413 0 0 0-.014-.537 1.67 1.67 0 0 1-.144-.238L11.1 3.238a.406.406 0 0 0-.4-.224c-1.784.005-3.569.008-5.353-.003a.489.489 0 0 0-.487.277A592.804 592.804 0 0 1 2.17 7.825a.325.325 0 0 0 .012.376c.908 1.525 1.814 3.051 2.716 4.579.07.14.218.222.374.206.903-.007 1.807-.003 2.71-.003z"/><path fill="#7D7CE8" d="M13.764 7.731a1.67 1.67 0 0 1-.144-.237L11.1 3.238a.406.406 0 0 0-.4-.224c-1.784.005-3.569.008-5.353-.003a.489.489 0 0 0-.487.277A592.511 592.511 0 0 1 2.17 7.825a.325.325 0 0 0 .012.376c.908 1.525 1.814 3.051 2.716 4.579.07.14.218.222.374.206.903-.007 1.807-.003 2.71-.003.926 0 1.852-.002 2.778.002a.318.318 0 0 0 .31-.17c.9-1.517 1.803-3.032 2.709-4.546a.413.413 0 0 0-.014-.538zm-2.058.442c-.581.97-1.16 1.942-1.738 2.915a.204.204 0 0 1-.199.11c-.593-.004-1.187-.002-1.781-.002-.58 0-1.16-.002-1.738.002a.24.24 0 0 1-.24-.132c-.578-.981-1.158-1.96-1.742-2.937a.208.208 0 0 1-.008-.241c.579-.968 1.154-1.938 1.726-2.91a.313.313 0 0 1 .312-.178c1.145.007 2.29.005 3.434.002a.26.26 0 0 1 .257.144c.535.911 1.074 1.821 1.616 2.73.026.053.057.104.092.152a.265.265 0 0 1 .009.345z" opacity=".8"/></g></svg>
